src/static/logos/appcircle-icon.svg

<?xml version="1.0" encoding="UTF-8"?>
<svg width="256px" height="256px" viewBox="0 0 256 256" version="1.1" xmlns="http://www.w3.org/2000/svg" xmlns:xlink="http://www.w3.org/1999/xlink" preserveAspectRatio="xMidYMid">
    <g>
        <path d="M92.8745667,181.582988 C112.411596,197.467104 115.700564,214.343377 102.74147,232.211808 C86.7671215,253.726483 57.200188,261.54131 32.1726131,249.437809 L31.9629935,249.336435 C31.9024784,249.30717 31.8420155,249.277798 31.7816052,249.248318 C3.64730381,235.518974 -7.98582795,201.672395 5.79827833,173.649867 L36.9968263,110.224487 L54.5280036,74.5843157 L75.5975352,31.7508143 C85.8360833,10.936262 107.190776,-0.844582517 129.051099,0.0472292899 C150.168077,-0.0325021167 170.492412,11.6509035 180.402464,31.7976382 L250.201722,173.696691 C263.985828,201.719219 252.352696,235.565797 224.218394,249.295142 C224.157985,249.324622 224.097522,249.353994 224.037006,249.383259 L223.827387,249.484633 C195.866009,263.00694 162.238664,251.667453 148.230389,224.13785 C140.969779,208.928741 145.812032,194.573069 162.757148,181.070833 L162.751544,181.070833 C175.49559,170.817349 183.645943,155.125281 183.645943,137.537158 C183.645943,106.646284 158.504057,81.6042833 127.489968,81.6042833 C96.4758795,81.6042833 71.3339933,106.646284 71.3339933,137.537158 C71.3339933,155.420762 79.7604992,171.344069 92.8745667,181.582988 Z M127.540689,166.850611 C111.245151,166.850611 98.0350076,153.692949 98.0350076,137.462151 C98.0350076,121.231353 111.245151,108.073691 127.540689,108.073691 C143.836227,108.073691 157.046371,121.231353 157.046371,137.462151 C157.046371,153.692949 143.836227,166.850611 127.540689,166.850611 Z" fill="#FF8F34"></path>
    </g>
</svg>

<svg width="256" height="256" xmlns="http://www.w3.org/2000/svg" preserveAspectRatio="xMidYMid"><path d="M92.875 181.583c19.537 15.884 22.826 32.76 9.866 50.629-15.974 21.514-45.54 29.33-70.568 17.226l-.21-.102-.181-.088C3.647 235.52-7.986 201.672 5.798 173.65l31.199-63.426 17.531-35.64 21.07-42.833C85.836 10.936 107.19-.845 129.05.047c21.117-.08 41.441 11.604 51.351 31.75l69.8 141.9c13.784 28.022 2.15 61.869-25.984 75.598l-.181.088-.21.102c-27.961 13.522-61.588 2.182-75.597-25.347-7.26-15.21-2.418-29.565 14.527-43.067h-.005c12.744-10.254 20.894-25.946 20.894-43.534 0-30.89-25.142-55.933-56.156-55.933s-56.156 25.042-56.156 55.933c0 17.884 8.426 33.807 21.54 44.046zm34.666-14.732c-16.296 0-29.506-13.158-29.506-29.389 0-16.23 13.21-29.388 29.506-29.388 16.295 0 29.505 13.157 29.505 29.388 0 16.23-13.21 29.389-29.505 29.389z" fill="#FF8F34"/></svg>
